!!!OTL: ES GIENG EIN KNABE SPAZIEREN
!!!ARE: Europa, Mitteleuropa, Deutschland, Baden, Merzhausen
!!!SCT: E0197A
!!!YEM: Copyright 1995, estate of Helmut Schaffrath.
**kern
*ICvox
*Ivox
*M6/4
*k[b-e-a-]
*E-:
{8e-
8g
=1
4.b-
8cc
4b-
4g
4f
4e-
=2
2.cc
4b-
4r}
{8g
8a-
=3
4.b-
8cc
4b-
4a-
4f
4b-
=4
1g
4r}
{8e-
8g
=5
4.b-
8cc
4b-
4g
4f
4e-
=6
2.cc
4b-
4r}
{8g
8a-
=7
4.b-
8cc
4b-
4a-
4f
4b-
=8
1g
4r}
{8g
8a-
=9
4.b-
8cc
4b-
4a-
4f
4b-
=10
1g
4r}
==
!!!AGN: erzaehlendes Volks - Lied, Tod, Toten - Sage, Grabesstimme
!!!ONB: ESAC (Essen Associative Code) Database: ERK1
!!!AMT: compound duple
!!!AIN: vox
!!!EED: Helmut Schaffrath
!!!EEV: 1.0
*-
